; generated by PrusaSlicer 2.5.0+linux-x64-GTK3 on 2022-11-24 at 08:36:25 UTC


;
;
; 

; external perimeters extrusion width = 0.45mm
; perimeters extrusion width = 0.45mm
; infill extrusion width = 0.45mm
; solid infill extrusion width = 0.45mm
; top infill extrusion width = 0.40mm
; first layer extrusion width = 0.42mm

M73 P0 R81
M73 Q0 S81
M201 X1000 Y1000 Z200 E5000 ; sets maximum accelerations, mm/sec^2
M203 X200 Y200 Z12 E120 ; sets maximum feedrates, mm / sec
M204 P1250 R1250 T1250 ; sets acceleration (P, T) and retract acceleration (R), mm/sec^2
M205 X8.00 Y8.00 Z0.40 E4.50 ; sets the jerk limits, mm/sec
M205 S0 T0 ; sets the minimum extruding and travel feed rate, mm/sec
M107
;TYPE:Custom
M862.3 P "MK3S" ; printer model check
M862.1 P0.4 ; nozzle diameter check
M115 U3.11.0 ; tell printer latest fw version
G90 ; use absolute coordinates
M83 ; extruder relative mode
M104 S215 ; set extruder temp
M140 S60 ; set bed temp
M190 S60 ; wait for bed temp
M109 S215 ; wait for extruder temp
G28 W ; home all without mesh bed level
G80 ; mesh bed leveling

G1 Z0.2 F720
G1 Y-3 F1000 ; go outside print area
G92 E0
G1 X60 E9 F1000 ; intro line
G1 X100 E12.5 F1000 ; intro line

G92 E0
M221 S95

; Don't change E values below. Excessive value can damage the printer.
M907 E430 ; set extruder motor current
G21 ; set units to millimeters
G90 ; use absolute coordinates
M83 ; use relative distances for extrusion
M900 K0.05 ; Filament gcode LA 1.5
M900 K30 ; Filament gcode LA 1.0
M107
;LAYER_CHANGE
;Z:0.2
;HEIGHT:0.2
;BEFORE_LAYER_CHANGE
G92 E0.0
;0.2


G1 E-.8 F2100
G1 Z.4 F720
;AFTER_LAYER_CHANGE
;0.2
G1 X81.801 Y62.703 F10800
G1 Z.2 F720
G1 E.8 F2100
M204 S800
;TYPE:Skirt/Brim
;WIDTH:0.42
G1 F1200
G1 X82.198 Y62.217 E.0197
G1 X82.728 Y61.785 E.02144
G1 X83.302 Y61.487 E.02028
G1 X83.874 Y61.319 E.0187
G1 X84.5 Y61.257 E.01971
G1 X165.56 Y61.258 E2.54157
G1 X166.132 Y61.32 E.01805
M73 P0 R80
G1 X166.76 Y61.512 E.02059
G1 X167.297 Y61.801 E.01911
G1 X167.783 Y62.198 E.0197
G1 X168.171 Y62.662 E.01897
G1 X168.457 Y63.169 E.01825
G1 X168.669 Y63.814 E.02126
G1 X168.741 Y64.4 E.01852
G1 X168.743 Y145.5 E2.54284
G1 X168.68 Y146.132 E.01991
M73 Q0 S80
G1 X168.497 Y146.738 E.01985
G1 X168.199 Y147.297 E.01984
G1 X167.802 Y147.783 E.0197
G1 X167.272 Y148.215 E.02144
G1 X166.698 Y148.513 E.02028
G1 X166.126 Y148.681 E.0187
G1 X165.5 Y148.743 E.01971
G1 X84.5 Y148.743 E2.5397
G1 X83.859 Y148.678 E.02019
G1 X83.301 Y148.513 E.01826
G1 X82.73 Y148.217 E.02016
G1 X82.273 Y147.856 E.01827
G1 X81.84 Y147.354 E.02078
G1 X81.518 Y146.774 E.0208
G1 X81.322 Y146.141 E.02079
G1 X81.257 Y145.5 E.02019
G1 X81.257 Y64.5 E2.5397
G1 X81.32 Y63.868 E.01991
G1 X81.503 Y63.262 E.01985
G1 X81.773 Y62.756 E.01796
M204 S1000
; printing object LightSwitchCover-Body001.stl id:0 copy 0
;WIPE_START
G1 F8640
G1 X82.198 Y62.217 E-.15866
G1 X82.728 Y61.785 E-.15787
G1 X83.302 Y61.487 E-.14936
G1 X83.874 Y61.319 E-.1377
G1 X84.5 Y61.257 E-.14518
G1 X84.549 Y61.257 E-.01123
;WIPE_END
G1 E-.04 F2100
G1 Z.6 F720
G1 X165.148 Y145.148 F10800
G1 Z.2 F720
G1 E.8 F2100
M204 S800
;TYPE:Perimeter
;WIDTH:0.419999
G1 F1200
G1 X84.852 Y145.148 E2.51765
G1 X84.852 Y64.852 E2.51765
G1 X165.148 Y64.852 E2.51765
G1 X165.148 Y145.088 E2.51576
M204 S1000
G1 X165.525 Y145.456 F10800
M204 S800
;TYPE:External perimeter
G1 F1200
G1 X165.454 Y145.525 E.00312
G1 X84.543 Y145.526 E2.5369
G1 X84.474 Y145.456 E.00308
G1 X84.475 Y64.544 E2.53692
G1 X84.546 Y64.475 E.00312
M73 P1 R80
M73 Q1 S80
G1 X165.46 Y64.475 E2.537
G1 X165.525 Y64.546 E.00303
G1 X165.525 Y145.396 E2.535
M204 S1000
G1 X165.426 Y145.455 F10800
;WIPE_START
G1 F8640
G1 X165.454 Y145.525 E-.03412
G1 X162.311 Y145.525 E-.72588
;WIPE_END
G1 E-.04 F2100
G1 Z.6 F720
G1 X164.272 Y64.965 F10800
G1 Z.2 F720
G1 E.8 F2100
M204 S800
;TYPE:Solid infill
;WIDTH:0.420553
G1 F1200
G1 X164.866 Y65.559 E.02637
G1 X164.866 Y66.093 E.01677
G1 X163.907 Y65.135 E.04255
G1 X163.373 Y65.135 E.01677
G1 X164.866 Y66.627 E.06626
G1 X164.866 Y67.161 E.01677
G1 X162.839 Y65.135 E.08998
G1 X162.305 Y65.135 E.01677
G1 X164.866 Y67.695 E.11369
G1 X164.866 Y68.229 E.01677
G1 X161.771 Y65.135 E.13741
G1 X161.237 Y65.135 E.01677
G1 X164.866 Y68.763 E.16113
G1 X164.866 Y69.297 E.01677
G1 X160.703 Y65.135 E.18484
G1 X160.169 Y65.135 E.01677
G1 X164.866 Y69.831 E.20856
G1 X164.866 Y70.365 E.01677
G1 X159.635 Y65.135 E.23227
G1 X159.101 Y65.135 E.01677
G1 X164.866 Y70.899 E.25599
G1 X164.866 Y71.433 E.01677
G1 X158.567 Y65.135 E.2797
G1 X158.033 Y65.135 E.01677
G1 X164.866 Y71.967 E.30342
G1 X164.866 Y72.501 E.01677
G1 X157.499 Y65.135 E.32714
G1 X156.965 Y65.135 E.01677
G1 X164.866 Y73.035 E.35085
G1 X164.866 Y73.57 E.01677
G1 X156.431 Y65.135 E.37457
G1 X155.897 Y65.135 E.01677
G1 X164.866 Y74.104 E.39828
G1 X164.866 Y74.638 E.01677
G1 X155.363 Y65.135 E.422
G1 X154.829 Y65.135 E.01677
G1 X164.866 Y75.172 E.44571
G1 X164.866 Y75.706 E.01677
G1 X154.294 Y65.135 E.46943
G1 X153.76 Y65.135 E.01677
G1 X164.866 Y76.24 E.49315
G1 X164.866 Y76.774 E.01677
G1 X153.226 Y65.135 E.51686
G1 X152.692 Y65.135 E.01677
M73 P1 R79
G1 X164.866 Y77.308 E.54058
G1 X164.866 Y77.842 E.01677
G1 X152.158 Y65.135 E.56429
G1 X151.624 Y65.135 E.01677
G1 X164.866 Y78.376 E.58801
G1 X164.866 Y78.91 E.01677
G1 X151.09 Y65.135 E.61172
G1 X150.556 Y65.135 E.01677
G1 X164.866 Y79.444 E.63544
G1 X164.866 Y79.978 E.01677
M73 Q1 S79
G1 X150.022 Y65.135 E.65915
G1 X149.488 Y65.135 E.01677
G1 X164.866 Y80.512 E.68287
G1 X164.866 Y81.046 E.01677
G1 X148.954 Y65.135 E.70659
G1 X148.42 Y65.135 E.01677
G1 X164.866 Y81.58 E.7303
G1 X164.866 Y82.114 E.01677
G1 X147.886 Y65.135 E.75402
G1 X147.352 Y65.135 E.01677
G1 X164.866 Y82.648 E.77773
G1 X164.866 Y83.183 E.01677
G1 X146.818 Y65.135 E.80145
G1 X146.284 Y65.135 E.01677
G1 X164.866 Y83.717 E.82516
G1 X164.866 Y84.251 E.01677
G1 X145.75 Y65.135 E.84888
G1 X145.216 Y65.135 E.01677
G1 X164.866 Y84.785 E.8726
G1 X164.866 Y85.319 E.01677
G1 X144.681 Y65.135 E.89631
G1 X144.147 Y65.135 E.01677
G1 X164.866 Y85.853 E.92003
G1 X164.866 Y86.387 E.01677
G1 X143.613 Y65.135 E.94374
G1 X143.079 Y65.135 E.01677
G1 X164.866 Y86.921 E.96746
G1 X164.866 Y87.455 E.01677
G1 X142.545 Y65.135 E.99117
G1 X142.011 Y65.135 E.01677
G1 X164.866 Y87.989 E1.01489
G1 X164.866 Y88.523 E.01677
G1 X141.477 Y65.135 E1.03861
G1 X140.943 Y65.135 E.01677
M73 P2 R79
M73 Q2 S79
G1 X164.866 Y89.057 E1.06232
G1 X164.866 Y89.591 E.01677
G1 X140.409 Y65.135 E1.08604
G1 X139.875 Y65.135 E.01677
G1 X164.866 Y90.125 E1.10975
G1 X164.866 Y90.659 E.01677
G1 X139.341 Y65.135 E1.13347
G1 X138.807 Y65.135 E.01677
G1 X164.866 Y91.193 E1.15718
G1 X164.866 Y91.727 E.01677
G1 X138.273 Y65.135 E1.1809
G1 X137.739 Y65.135 E.01677
G1 X164.866 Y92.261 E1.20462
G1 X164.866 Y92.795 E.01677
G1 X137.205 Y65.135 E1.22833
G1 X136.671 Y65.135 E.01677
G1 X164.866 Y93.33 E1.25205
G1 X164.866 Y93.864 E.01677
G1 X136.137 Y65.135 E1.27576
G1 X135.603 Y65.135 E.01677
G1 X164.866 Y94.398 E1.29948
G1 X164.866 Y94.932 E.01677
G1 X135.068 Y65.135 E1.32319
G1 X134.534 Y65.135 E.01677
G1 X164.866 Y95.466 E1.34691
G1 X164.866 Y96 E.01677
G1 X134 Y65.135 E1.37062
G1 X133.466 Y65.135 E.01677
G1 X164.866 Y96.534 E1.39434
G1 X164.866 Y97.068 E.01677
G1 X132.932 Y65.135 E1.41806
G1 X132.398 Y65.135 E.01677
M73 P2 R78
G1 X164.866 Y97.602 E1.44177
G1 X164.866 Y98.136 E.01677
G1 X131.864 Y65.135 E1.46549
G1 X131.33 Y65.135 E.01677
M73 Q2 S78
G1 X164.866 Y98.67 E1.4892
G1 X164.866 Y99.204 E.01677
G1 X130.796 Y65.135 E1.51292
G1 X130.262 Y65.135 E.01677
G1 X164.866 Y99.738 E1.53663
G1 X164.866 Y100.272 E.01677
G1 X129.728 Y65.135 E1.56035
G1 X129.194 Y65.135 E.01677
G1 X164.866 Y100.806 E1.58407
G1 X164.866 Y101.34 E.01677
M73 P3 R78
M73 Q3 S78
G1 X128.66 Y65.135 E1.60778
G1 X128.126 Y65.135 E.01677
G1 X164.866 Y101.874 E1.6315
G1 X164.866 Y102.408 E.01677
G1 X127.592 Y65.135 E1.65521
G1 X127.058 Y65.135 E.01677
G1 X164.866 Y102.942 E1.67893
G1 X164.866 Y103.477 E.01677
G1 X126.524 Y65.135 E1.70264
G1 X125.99 Y65.135 E.01677
G1 X164.866 Y104.011 E1.72636
G1 X164.866 Y104.545 E.01677
G1 X125.455 Y65.135 E1.75008
G1 X124.921 Y65.135 E.01677
G1 X164.866 Y105.079 E1.77379
G1 X164.866 Y105.613 E.01677
G1 X124.387 Y65.135 E1.79751
G1 X123.853 Y65.135 E.01677
G1 X164.866 Y106.147 E1.82122
G1 X164.866 Y106.681 E.01677
G1 X123.319 Y65.135 E1.84494
G1 X122.785 Y65.135 E.01677
G1 X164.866 Y107.215 E1.86865
G1 X164.866 Y107.749 E.01677
G1 X122.251 Y65.135 E1.89237
G1 X121.717 Y65.135 E.01677
G1 X164.866 Y108.283 E1.91609
G1 X164.866 Y108.817 E.01677
G1 X121.183 Y65.135 E1.9398
G1 X120.649 Y65.135 E.01677
M73 P3 R77
G1 X164.866 Y109.351 E1.96352
G1 X164.866 Y109.885 E.01677
G1 X120.115 Y65.135 E1.98723
G1 X119.581 Y65.135 E.01677
M73 P4 R77
M73 Q4 S77
G1 X164.866 Y110.419 E2.01095
G1 X164.866 Y110.953 E.01677
G1 X119.047 Y65.135 E2.03466
G1 X118.513 Y65.135 E.01677
G1 X164.866 Y111.487 E2.05838
G1 X164.866 Y112.021 E.01677
G1 X117.979 Y65.135 E2.08209
G1 X117.445 Y65.135 E.01677
G1 X164.866 Y112.555 E2.10581
G1 X164.866 Y113.09 E.01677
G1 X116.911 Y65.135 E2.12953
G1 X116.377 Y65.135 E.01677
G1 X164.866 Y113.624 E2.15324
G1 X164.866 Y114.158 E.01677
G1 X115.842 Y65.135 E2.17696
G1 X115.308 Y65.134 E.01677
G1 X164.866 Y114.692 E2.20067
G1 X164.866 Y115.226 E.01677
G1 X114.774 Y65.134 E2.22439
G1 X114.24 Y65.134 E.01677
G1 X164.866 Y115.76 E2.2481
G1 X164.866 Y116.294 E.01677
G1 X113.706 Y65.134 E2.27182
G1 X113.172 Y65.134 E.01677
G1 X164.866 Y116.828 E2.29554
G1 X164.866 Y117.362 E.01677
G1 X112.638 Y65.134 E2.31925
G1 X112.104 Y65.134 E.01677
M73 P5 R77
M73 Q5 S77
G1 X164.866 Y117.896 E2.34297
G1 X164.866 Y118.43 E.01677
M73 P5 R76
G1 X111.57 Y65.134 E2.36668
G1 X111.036 Y65.134 E.01677
G1 X164.866 Y118.964 E2.3904
G1 X164.866 Y119.498 E.01677
M73 Q5 S76
G1 X110.502 Y65.134 E2.41411
G1 X109.968 Y65.134 E.01677
G1 X164.866 Y120.032 E2.43783
G1 X164.866 Y120.566 E.01677
G1 X109.434 Y65.134 E2.46155
G1 X108.9 Y65.134 E.01677
G1 X164.866 Y121.1 E2.48526
G1 X164.866 Y121.634 E.01677
G1 X108.366 Y65.134 E2.50898
G1 X107.832 Y65.134 E.01677
G1 X164.866 Y122.168 E2.53269
G1 X164.866 Y122.702 E.01677
G1 X107.298 Y65.134 E2.55641
G1 X106.764 Y65.134 E.01677
G1 X164.866 Y123.237 E2.58012
G1 X164.866 Y123.771 E.01677
G1 X106.229 Y65.134 E2.60384
G1 X105.695 Y65.134 E.01677
M73 P6 R76
M73 Q6 S76
G1 X164.866 Y124.305 E2.62756
G1 X164.866 Y124.839 E.01677
G1 X105.161 Y65.134 E2.65127
G1 X104.627 Y65.134 E.01677
G1 X164.866 Y125.373 E2.67499
G1 X164.866 Y125.907 E.01677
G1 X104.093 Y65.134 E2.6987
G1 X103.559 Y65.134 E.01677
M73 P6 R75
G1 X164.866 Y126.441 E2.72242
G1 X164.866 Y126.975 E.01677
M73 Q6 S75
G1 X103.025 Y65.134 E2.74613
G1 X102.491 Y65.134 E.01677
G1 X164.866 Y127.509 E2.76985
G1 X164.866 Y128.043 E.01677
G1 X101.957 Y65.134 E2.79356
G1 X101.423 Y65.134 E.01677
G1 X164.866 Y128.577 E2.81728
G1 X164.866 Y129.111 E.01677
G1 X100.889 Y65.134 E2.841
G1 X100.355 Y65.134 E.01677
G1 X164.866 Y129.645 E2.86471
G1 X164.866 Y130.179 E.01677
M73 P7 R75
M73 Q7 S75
G1 X99.821 Y65.134 E2.88843
G1 X99.287 Y65.134 E.01677
G1 X164.866 Y130.713 E2.91214
G1 X164.866 Y131.247 E.01677
G1 X98.753 Y65.134 E2.93586
G1 X98.219 Y65.134 E.01677
G1 X164.866 Y131.781 E2.95957
G1 X164.866 Y132.315 E.01677
G1 X97.685 Y65.134 E2.98329
G1 X97.151 Y65.134 E.01677
G1 X164.866 Y132.85 E3.00701
G1 X164.866 Y133.384 E.01677
M73 P7 R74
G1 X96.616 Y65.134 E3.03072
G1 X96.082 Y65.134 E.01677
M73 Q7 S74
G1 X164.866 Y133.918 E3.05444
G1 X164.866 Y134.452 E.01677
G1 X95.548 Y65.134 E3.07815
G1 X95.014 Y65.134 E.01677
G1 X164.866 Y134.986 E3.10187
G1 X164.866 Y135.52 E.01677
M73 Q8 S74
G1 X94.48 Y65.134 E3.12558
G1 X93.946 Y65.134 E.01677
M73 P8 R74
G1 X164.866 Y136.054 E3.1493
G1 X164.866 Y136.588 E.01677
G1 X93.412 Y65.134 E3.17302
G1 X92.878 Y65.134 E.01677
G1 X164.866 Y137.122 E3.19673
G1 X164.866 Y137.656 E.01677
G1 X92.344 Y65.134 E3.22045
G1 X91.81 Y65.134 E.01677
G1 X164.866 Y138.19 E3.24416
G1 X164.866 Y138.724 E.01677
G1 X91.276 Y65.134 E3.26788
G1 X90.742 Y65.134 E.01677
G1 X164.866 Y139.258 E3.29159
G1 X164.866 Y139.792 E.01677
M73 P8 R73
G1 X90.208 Y65.134 E3.31531
G1 X89.674 Y65.134 E.01677
M73 Q8 S73
G1 X164.866 Y140.326 E3.33903
G1 X164.866 Y140.86 E.01677
M73 P9 R73
M73 Q9 S73
G1 X89.14 Y65.134 E3.36274
G1 X88.606 Y65.134 E.01677
G1 X164.866 Y141.394 E3.38646
G1 X164.866 Y141.928 E.01677
G1 X88.072 Y65.134 E3.41017
G1 X87.538 Y65.134 E.01677
G1 X164.866 Y142.462 E3.43389
G1 X164.866 Y142.997 E.01677
G1 X87.003 Y65.134 E3.4576
G1 X86.469 Y65.134 E.01677
G1 X164.866 Y143.531 E3.48132
G1 X164.866 Y144.065 E.01677
G1 X85.935 Y65.134 E3.50503
G1 X85.401 Y65.134 E.01677
G1 X164.866 Y144.599 E3.52875
G1 X164.866 Y144.866 E.00838
G1 X164.598 Y144.866 E.00839
G1 X85.134 Y65.402 E3.52874
G1 X85.134 Y65.936 E.01677
M73 P10 R72
M73 Q10 S73
G1 X164.064 Y144.866 E3.50503
G1 X163.53 Y144.866 E.01677
M73 Q10 S72
G1 X85.134 Y66.47 E3.48131
G1 X85.134 Y67.004 E.01677
G1 X162.996 Y144.866 E3.45759
G1 X162.462 Y144.866 E.01677
G1 X85.134 Y67.538 E3.43388
G1 X85.134 Y68.072 E.01677
G1 X161.928 Y144.866 E3.41016
G1 X161.394 Y144.866 E.01677
G1 X85.134 Y68.606 E3.38645
G1 X85.134 Y69.14 E.01677
G1 X160.86 Y144.866 E3.36273
G1 X160.326 Y144.866 E.01677
G1 X85.134 Y69.674 E3.33902
G1 X85.134 Y70.208 E.01677
G1 X159.792 Y144.866 E3.3153
G1 X159.258 Y144.866 E.01677
M73 P11 R72
M73 Q11 S72
G1 X85.134 Y70.742 E3.29159
G1 X85.134 Y71.276 E.01677
G1 X158.724 Y144.866 E3.26787
G1 X158.19 Y144.866 E.01677
M73 P11 R71
G1 X85.134 Y71.81 E3.24415
G1 X85.134 Y72.344 E.01677
M73 Q11 S71
G1 X157.656 Y144.866 E3.22044
G1 X157.122 Y144.866 E.01677
G1 X85.134 Y72.878 E3.19672
G1 X85.134 Y73.412 E.01677
G1 X156.588 Y144.866 E3.17301
G1 X156.054 Y144.866 E.01677
G1 X85.134 Y73.946 E3.14929
G1 X85.134 Y74.48 E.01677
G1 X155.52 Y144.866 E3.12558
G1 X154.986 Y144.866 E.01677
G1 X85.134 Y75.014 E3.10186
G1 X85.134 Y75.549 E.01677
M73 P12 R71
M73 Q12 S71
G1 X154.451 Y144.866 E3.07815
G1 X153.917 Y144.866 E.01677
G1 X85.134 Y76.083 E3.05443
G1 X85.134 Y76.617 E.01677
G1 X153.383 Y144.866 E3.03071
G1 X152.849 Y144.866 E.01677
G1 X85.134 Y77.151 E3.007
G1 X85.134 Y77.685 E.01677
G1 X152.315 Y144.866 E2.98328
G1 X151.781 Y144.866 E.01677
M73 P12 R70
G1 X85.134 Y78.219 E2.95957
G1 X85.134 Y78.753 E.01677
M73 Q12 S70
G1 X151.247 Y144.866 E2.93585
G1 X150.713 Y144.866 E.01677
G1 X85.134 Y79.287 E2.91214
G1 X85.134 Y79.821 E.01677
G1 X150.179 Y144.866 E2.88842
G1 X149.645 Y144.866 E.01677
G1 X85.134 Y80.355 E2.86471
G1 X85.134 Y80.889 E.01677
M73 P13 R70
M73 Q13 S70
G1 X149.111 Y144.866 E2.84099
G1 X148.577 Y144.866 E.01677
G1 X85.134 Y81.423 E2.81727
G1 X85.134 Y81.957 E.01677
G1 X148.043 Y144.866 E2.79356
G1 X147.509 Y144.866 E.01677
G1 X85.134 Y82.491 E2.76984
G1 X85.134 Y83.025 E.01677
G1 X146.975 Y144.866 E2.74613
G1 X146.441 Y144.866 E.01677
G1 X85.134 Y83.559 E2.72241
G1 X85.134 Y84.093 E.01677
G1 X145.907 Y144.866 E2.6987
G1 X145.373 Y144.866 E.01677
G1 X85.134 Y84.627 E2.67498
G1 X85.134 Y85.162 E.01677
M73 P13 R69
G1 X144.838 Y144.866 E2.65127
G1 X144.304 Y144.866 E.01677
M73 Q13 S69
G1 X85.134 Y85.696 E2.62755
G1 X85.134 Y86.23 E.01677
G1 X143.77 Y144.866 E2.60383
G1 X143.236 Y144.866 E.01677
M73 P14 R69
M73 Q14 S69
G1 X85.134 Y86.764 E2.58012
G1 X85.134 Y87.298 E.01677
G1 X142.702 Y144.866 E2.5564
G1 X142.168 Y144.866 E.01677
G1 X85.134 Y87.832 E2.53269
G1 X85.134 Y88.366 E.01677
G1 X141.634 Y144.866 E2.50897
G1 X141.1 Y144.866 E.01677
G1 X85.134 Y88.9 E2.48526
G1 X85.134 Y89.434 E.01677
G1 X140.566 Y144.866 E2.46154
G1 X140.032 Y144.866 E.01677
G1 X85.134 Y89.968 E2.43783
G1 X85.134 Y90.502 E.01677
G1 X139.498 Y144.866 E2.41411
G1 X138.964 Y144.866 E.01677
G1 X85.134 Y91.036 E2.39039
G1 X85.134 Y91.57 E.01677
G1 X138.43 Y144.866 E2.36668
G1 X137.896 Y144.866 E.01677
G1 X85.134 Y92.104 E2.34296
G1 X85.134 Y92.638 E.01677
G1 X137.362 Y144.866 E2.31925
G1 X136.828 Y144.866 E.01677
M73 P14 R68
G1 X85.134 Y93.172 E2.29553
G1 X85.134 Y93.706 E.01677
M73 P15 R68
M73 Q15 S68
G1 X136.294 Y144.866 E2.27182
G1 X135.76 Y144.866 E.01677
G1 X85.134 Y94.24 E2.2481
G1 X85.134 Y94.774 E.01677
