; generated by PrusaSlicer 2.5.0+linux-x64-GTK3 on 2022-11-24 at 22:02:53 UTC


;
;
; 

; external perimeters extrusion width = 0.45mm
; perimeters extrusion width = 0.45mm
; infill extrusion width = 0.45mm
; solid infill extrusion width = 0.45mm
; top infill extrusion width = 0.40mm
; first layer extrusion width = 0.42mm

M73 P0 R37
M73 Q0 S38
M201 X1000 Y1000 Z200 E5000 ; sets maximum accelerations, mm/sec^2
M203 X200 Y200 Z12 E120 ; sets maximum feedrates, mm / sec
M204 P1250 R1250 T1250 ; sets acceleration (P, T) and retract acceleration (R), mm/sec^2
M205 X8.00 Y8.00 Z0.40 E4.50 ; sets the jerk limits, mm/sec
M205 S0 T0 ; sets the minimum extruding and travel feed rate, mm/sec
M107
;TYPE:Custom
M862.3 P "MK3S" ; printer model check
M862.1 P0.4 ; nozzle diameter check
M115 U3.11.0 ; tell printer latest fw version
G90 ; use absolute coordinates
M83 ; extruder relative mode
M104 S215 ; set extruder temp
M140 S60 ; set bed temp
M190 S60 ; wait for bed temp
M109 S215 ; wait for extruder temp
G28 W ; home all without mesh bed level
G80 ; mesh bed leveling

G1 Z0.2 F720
G1 Y-3 F1000 ; go outside print area
G92 E0
G1 X60 E9 F1000 ; intro line
G1 X100 E12.5 F1000 ; intro line

G92 E0
M221 S95

; Don't change E values below. Excessive value can damage the printer.
M907 E430 ; set extruder motor current
G21 ; set units to millimeters
G90 ; use absolute coordinates
M83 ; use relative distances for extrusion
M900 K0.05 ; Filament gcode LA 1.5
M900 K30 ; Filament gcode LA 1.0
M107
;LAYER_CHANGE
;Z:0.2
;HEIGHT:0.2
;BEFORE_LAYER_CHANGE
G92 E0.0
;0.2


G1 E-.8 F2100
G1 Z.4 F720
;AFTER_LAYER_CHANGE
;0.2
G1 X114.119 Y73.869 F10800
G1 Z.2 F720
G1 E.8 F2100
M204 S800
;TYPE:Skirt/Brim
;WIDTH:0.42
G1 F1200
G1 X114.619 Y73.369 E.02217
G1 X116.3 Y72.673 E.05704
G1 X133.7 Y72.673 E.54556
G1 X135.381 Y73.369 E.05704
G1 X135.881 Y73.869 E.02217
G1 X136.577 Y75.55 E.05704
G1 X136.577 Y134.45 E1.84677
G1 X135.881 Y136.131 E.05704
G1 X135.381 Y136.631 E.02217
G1 X133.7 Y137.327 E.05704
G1 X116.3 Y137.327 E.54556
G1 X114.619 Y136.631 E.05704
G1 X114.119 Y136.131 E.02217
G1 X113.423 Y134.45 E.05704
G1 X113.423 Y75.55 E1.84677
G1 X114.096 Y73.925 E.05516
M204 S1000
; printing object InlineSwitchCover.stl id:0 copy 0
;WIPE_START
G1 F8640
G1 X114.619 Y73.369 E-.17615
G1 X116.3 Y72.673 E-.42009
G1 X117.009 Y72.673 E-.16376
;WIPE_END
G1 E-.04 F2100
G1 Z.6 F720
G1 X133.013 Y76.237 F10800
G1 Z.2 F720
G1 E.8 F2100
M204 S800
;TYPE:Perimeter
;WIDTH:0.419999
G1 F1200
G1 X133.013 Y133.763 E1.80368
G1 X116.987 Y133.763 E.50248
M73 Q0 S37
G1 X116.987 Y76.237 E1.80368
G1 X132.953 Y76.237 E.5006
M204 S1000
M73 P1 R37
G1 X133.39 Y75.86 F10800
M204 S800
;TYPE:External perimeter
M73 Q1 S37
G1 F1200
G1 X133.39 Y134.14 E1.82733
G1 X116.61 Y134.14 E.52612
G1 X116.61 Y75.86 E1.82733
G1 X133.33 Y75.86 E.52424
M204 S1000
G1 X133.353 Y76.258 F10800
;WIPE_START
G1 F8640
G1 X133.333 Y79.151 E-.76
;WIPE_END
G1 E-.04 F2100
G1 Z.6 F720
G1 X132.9 Y77.114 F10800
G1 Z.2 F720
G1 E.8 F2100
M204 S800
;TYPE:Solid infill
;WIDTH:0.4206
G1 F1200
G1 X132.306 Y76.52 E.02637
G1 X131.772 Y76.52 E.01677
G1 X132.73 Y77.478 E.04256
G1 X132.73 Y78.012 E.01677
G1 X131.238 Y76.52 E.06628
G1 X130.704 Y76.52 E.01677
G1 X132.73 Y78.546 E.09
G1 X132.73 Y79.081 E.01677
G1 X130.169 Y76.52 E.11372
G1 X129.635 Y76.52 E.01677
G1 X132.73 Y79.615 E.13745
G1 X132.73 Y80.149 E.01677
G1 X129.101 Y76.52 E.16117
G1 X128.567 Y76.52 E.01677
G1 X132.73 Y80.683 E.18489
G1 X132.73 Y81.217 E.01677
G1 X128.033 Y76.52 E.20861
G1 X127.499 Y76.52 E.01677
G1 X132.73 Y81.751 E.23233
G1 X132.73 Y82.285 E.01677
G1 X126.965 Y76.52 E.25605
G1 X126.431 Y76.52 E.01677
G1 X132.73 Y82.819 E.27977
G1 X132.73 Y83.353 E.01677
G1 X125.897 Y76.52 E.3035
G1 X125.362 Y76.52 E.01677
G1 X132.73 Y83.888 E.32722
G1 X132.73 Y84.422 E.01677
G1 X124.828 Y76.52 E.35094
G1 X124.294 Y76.52 E.01677
G1 X132.73 Y84.956 E.37466
G1 X132.73 Y85.49 E.01677
G1 X123.76 Y76.52 E.39838
G1 X123.226 Y76.52 E.01677
G1 X132.73 Y86.024 E.4221
G1 X132.73 Y86.558 E.01677
M73 P1 R36
G1 X122.692 Y76.52 E.44583
G1 X122.158 Y76.52 E.01677
G1 X132.73 Y87.092 E.46955
G1 X132.73 Y87.626 E.01677
G1 X121.624 Y76.52 E.49327
G1 X121.089 Y76.52 E.01677
G1 X132.73 Y88.161 E.51699
G1 X132.73 Y88.695 E.01677
G1 X120.555 Y76.52 E.54071
G1 X120.021 Y76.52 E.01677
G1 X132.73 Y89.229 E.56443
G1 X132.73 Y89.763 E.01677
G1 X119.487 Y76.52 E.58815
G1 X118.953 Y76.52 E.01677
G1 X132.73 Y90.297 E.61188
G1 X132.73 Y90.831 E.01677
M73 P2 R36
G1 X118.419 Y76.52 E.6356
G1 X117.885 Y76.52 E.01677
M73 Q2 S37
G1 X132.73 Y91.365 E.65932
G1 X132.73 Y91.899 E.01677
G1 X117.351 Y76.52 E.68304
G1 X117.27 Y76.52 E.00253
G1 X117.27 Y76.973 E.01424
G1 X132.73 Y92.434 E.68662
G1 X132.73 Y92.968 E.01677
G1 X117.27 Y77.507 E.68662
G1 X117.27 Y78.042 E.01677
G1 X132.73 Y93.502 E.68662
G1 X132.73 Y94.036 E.01677
G1 X117.27 Y78.576 E.68662
G1 X117.27 Y79.11 E.01677
G1 X132.73 Y94.57 E.68662
G1 X132.73 Y95.104 E.01677
G1 X117.27 Y79.644 E.68662
G1 X117.27 Y80.178 E.01677
G1 X132.73 Y95.638 E.68662
G1 X132.73 Y96.172 E.01677
G1 X117.27 Y80.712 E.68662
G1 X117.27 Y81.246 E.01677
G1 X132.73 Y96.706 E.68662
G1 X132.73 Y97.241 E.01677
G1 X117.27 Y81.78 E.68662
G1 X117.27 Y82.314 E.01677
G1 X132.73 Y97.775 E.68662
G1 X132.73 Y98.309 E.01677
G1 X117.27 Y82.849 E.68662
G1 X117.27 Y83.383 E.01677
G1 X132.73 Y98.843 E.68662
G1 X132.73 Y99.377 E.01677
G1 X117.27 Y83.917 E.68662
G1 X117.27 Y84.451 E.01677
G1 X132.73 Y99.911 E.68662
G1 X132.73 Y100.445 E.01677
G1 X117.27 Y84.985 E.68662
G1 X117.27 Y85.519 E.01677
G1 X132.73 Y100.979 E.68662
G1 X132.73 Y101.514 E.01677
M73 P3 R36
G1 X117.27 Y86.053 E.68662
G1 X117.27 Y86.587 E.01677
M73 Q3 S37
G1 X132.73 Y102.048 E.68662
G1 X132.73 Y102.582 E.01677
G1 X117.27 Y87.122 E.68662
G1 X117.27 Y87.656 E.01677
G1 X132.73 Y103.116 E.68662
G1 X132.73 Y103.65 E.01677
G1 X117.27 Y88.19 E.68662
G1 X117.27 Y88.724 E.01677
G1 X132.73 Y104.184 E.68662
G1 X132.73 Y104.718 E.01677
G1 X117.27 Y89.258 E.68662
G1 X117.27 Y89.792 E.01677
G1 X132.73 Y105.252 E.68662
G1 X132.73 Y105.787 E.01677
M73 Q3 S36
G1 X117.27 Y90.326 E.68662
G1 X117.27 Y90.86 E.01677
G1 X132.73 Y106.321 E.68662
G1 X132.73 Y106.855 E.01677
G1 X117.27 Y91.395 E.68662
G1 X117.27 Y91.929 E.01677
G1 X132.73 Y107.389 E.68662
G1 X132.73 Y107.923 E.01677
G1 X117.27 Y92.463 E.68662
G1 X117.27 Y92.997 E.01677
G1 X132.73 Y108.457 E.68662
G1 X132.73 Y108.991 E.01677
G1 X117.27 Y93.531 E.68662
G1 X117.27 Y94.065 E.01677
G1 X132.73 Y109.525 E.68662
G1 X132.73 Y110.06 E.01677
G1 X117.27 Y94.599 E.68662
G1 X117.27 Y95.133 E.01677
G1 X132.73 Y110.594 E.68662
G1 X132.73 Y111.128 E.01677
G1 X117.27 Y95.667 E.68662
G1 X117.27 Y96.202 E.01677
G1 X132.73 Y111.662 E.68662
G1 X132.73 Y112.196 E.01677
M73 P4 R36
G1 X117.27 Y96.736 E.68662
G1 X117.27 Y97.27 E.01677
M73 Q4 S36
G1 X132.73 Y112.73 E.68662
G1 X132.73 Y113.264 E.01677
G1 X117.27 Y97.804 E.68662
G1 X117.27 Y98.338 E.01677
G1 X132.73 Y113.798 E.68662
G1 X132.73 Y114.332 E.01677
G1 X117.27 Y98.872 E.68662
G1 X117.27 Y99.406 E.01677
G1 X132.73 Y114.867 E.68662
G1 X132.73 Y115.401 E.01677
G1 X117.27 Y99.94 E.68662
G1 X117.27 Y100.475 E.01677
M73 P4 R35
G1 X132.73 Y115.935 E.68662
G1 X132.73 Y116.469 E.01677
G1 X117.27 Y101.009 E.68662
G1 X117.27 Y101.543 E.01677
G1 X132.73 Y117.003 E.68662
G1 X132.73 Y117.537 E.01677
G1 X117.27 Y102.077 E.68662
G1 X117.27 Y102.611 E.01677
G1 X132.73 Y118.071 E.68662
G1 X132.73 Y118.605 E.01677
G1 X117.27 Y103.145 E.68662
G1 X117.27 Y103.679 E.01677
G1 X132.73 Y119.14 E.68662
G1 X132.73 Y119.674 E.01677
G1 X117.27 Y104.213 E.68662
G1 X117.27 Y104.748 E.01677
G1 X132.73 Y120.208 E.68662
G1 X132.73 Y120.742 E.01677
G1 X117.27 Y105.282 E.68662
G1 X117.27 Y105.816 E.01677
G1 X132.73 Y121.276 E.68662
G1 X132.73 Y121.81 E.01677
G1 X117.27 Y106.35 E.68662
G1 X117.27 Y106.884 E.01677
G1 X132.73 Y122.344 E.68662
G1 X132.73 Y122.878 E.01677
M73 P5 R35
G1 X117.27 Y107.418 E.68662
G1 X117.27 Y107.952 E.01677
G1 X132.73 Y123.413 E.68662
M73 Q5 S36
G1 X132.73 Y123.947 E.01677
G1 X117.27 Y108.486 E.68662
G1 X117.27 Y109.02 E.01677
G1 X132.73 Y124.481 E.68662
G1 X132.73 Y125.015 E.01677
G1 X117.27 Y109.555 E.68662
G1 X117.27 Y110.089 E.01677
G1 X132.73 Y125.549 E.68662
G1 X132.73 Y126.083 E.01677
G1 X117.27 Y110.623 E.68662
G1 X117.27 Y111.157 E.01677
G1 X132.73 Y126.617 E.68662
G1 X132.73 Y127.151 E.01677
G1 X117.27 Y111.691 E.68662
G1 X117.27 Y112.225 E.01677
G1 X132.73 Y127.685 E.68662
G1 X132.73 Y128.22 E.01677
G1 X117.27 Y112.759 E.68662
G1 X117.27 Y113.293 E.01677
G1 X132.73 Y128.754 E.68662
G1 X132.73 Y129.288 E.01677
G1 X117.27 Y113.828 E.68662
G1 X117.27 Y114.362 E.01677
G1 X132.73 Y129.822 E.68662
G1 X132.73 Y130.356 E.01677
G1 X117.27 Y114.896 E.68662
G1 X117.27 Y115.43 E.01677
G1 X132.73 Y130.89 E.68662
G1 X132.73 Y131.424 E.01677
G1 X117.27 Y115.964 E.68662
G1 X117.27 Y116.498 E.01677
G1 X132.73 Y131.958 E.68662
G1 X132.73 Y132.493 E.01677
G1 X117.27 Y117.032 E.68662
G1 X117.27 Y117.566 E.01677
G1 X132.73 Y133.027 E.68662
G1 X132.73 Y133.48 E.01424
M73 P6 R35
G1 X132.649 Y133.48 E.00253
G1 X117.27 Y118.101 E.68304
G1 X117.27 Y118.635 E.01677
M73 Q5 S35
G1 X132.115 Y133.48 E.65932
G1 X131.581 Y133.48 E.01677
M73 Q6 S35
G1 X117.27 Y119.169 E.6356
G1 X117.27 Y119.703 E.01677
G1 X131.047 Y133.48 E.61188
G1 X130.513 Y133.48 E.01677
G1 X117.27 Y120.237 E.58816
G1 X117.27 Y120.771 E.01677
G1 X129.979 Y133.48 E.56443
G1 X129.445 Y133.48 E.01677
G1 X117.27 Y121.305 E.54071
G1 X117.27 Y121.839 E.01677
G1 X128.911 Y133.48 E.51699
G1 X128.376 Y133.48 E.01677
G1 X117.27 Y122.374 E.49327
G1 X117.27 Y122.908 E.01677
G1 X127.842 Y133.48 E.46955
G1 X127.308 Y133.48 E.01677
G1 X117.27 Y123.442 E.44583
G1 X117.27 Y123.976 E.01677
G1 X126.774 Y133.48 E.42211
G1 X126.24 Y133.48 E.01677
G1 X117.27 Y124.51 E.39838
G1 X117.27 Y125.044 E.01677
G1 X125.706 Y133.48 E.37466
G1 X125.172 Y133.48 E.01677
G1 X117.27 Y125.578 E.35094
G1 X117.27 Y126.112 E.01677
G1 X124.638 Y133.48 E.32722
G1 X124.104 Y133.48 E.01677
G1 X117.27 Y126.646 E.3035
G1 X117.27 Y127.181 E.01677
G1 X123.569 Y133.48 E.27978
G1 X123.035 Y133.48 E.01677
G1 X117.27 Y127.715 E.25606
G1 X117.27 Y128.249 E.01677
G1 X122.501 Y133.48 E.23233
G1 X121.967 Y133.48 E.01677
G1 X117.27 Y128.783 E.20861
G1 X117.27 Y129.317 E.01677
G1 X121.433 Y133.48 E.18489
G1 X120.899 Y133.48 E.01677
G1 X117.27 Y129.851 E.16117
G1 X117.27 Y130.385 E.01677
G1 X120.365 Y133.48 E.13745
G1 X119.831 Y133.48 E.01677
G1 X117.27 Y130.919 E.11373
G1 X117.27 Y131.454 E.01677
G1 X119.296 Y133.48 E.09
G1 X118.762 Y133.48 E.01677
G1 X117.27 Y131.988 E.06628
G1 X117.27 Y132.522 E.01677
G1 X118.228 Y133.48 E.04256
G1 X117.694 Y133.48 E.01677
G1 X117.1 Y132.886 E.02638
M204 S1000
; stop printing object InlineSwitchCover.stl id:0 copy 0
M106 S84.15
;LAYER_CHANGE
;Z:0.4
;HEIGHT:0.2
;BEFORE_LAYER_CHANGE
G92 E0.0
;0.4


;WIPE_START
G1 F8640
G1 X117.694 Y133.48 E-.19394
G1 X118.228 Y133.48 E-.12333
G1 X117.27 Y132.522 E-.31294
G1 X117.27 Y131.988 E-.12333
G1 X117.29 Y132.007 E-.00646
;WIPE_END
G1 E-.04 F2100
G1 Z.6 F720
;AFTER_LAYER_CHANGE
;0.4
M104 S210 ; set temperature
G1 X113.423 Y132.007 F10800
G1 Z.4 F720
G1 E.8 F2100
;TYPE:Skirt/Brim
;WIDTH:0.42
G1 F3000
G1 X113.423 Y75.55 E1.77018
G1 X114.119 Y73.869 E.05704
G1 X114.619 Y73.369 E.02217
G1 X116.3 Y72.673 E.05704
G1 X133.7 Y72.673 E.54556
G1 X135.381 Y73.369 E.05704
G1 X135.881 Y73.869 E.02217
G1 X136.577 Y75.55 E.05704
G1 X136.577 Y134.45 E1.84677
G1 X135.881 Y136.131 E.05704
G1 X135.381 Y136.631 E.02217
G1 X133.7 Y137.327 E.05704
G1 X116.3 Y137.327 E.54556
G1 X114.619 Y136.631 E.05704
G1 X114.119 Y136.131 E.02217
G1 X113.423 Y134.45 E.05704
G1 X113.423 Y132.067 E.0747
; printing object InlineSwitchCover.stl id:0 copy 0
;WIPE_START
G1 F8640
G1 X113.423 Y128.776 E-.76
;WIPE_END
G1 E-.04 F2100
G1 Z.8 F720
G1 X133.368 Y75.882 F10800
G1 Z.4 F720
M73 P7 R34
G1 E.8 F2100
M204 S800
;TYPE:Perimeter
;WIDTH:0.449999
G1 F2700
G1 X133.368 Y134.118 E1.97121
G1 X116.632 Y134.118 E.56649
G1 X116.632 Y75.882 E1.97121
G1 X133.308 Y75.882 E.56446
M204 S1000
M73 Q7 S35
G1 X133.775 Y75.643 F10800
M204 S800
;TYPE:External perimeter
G1 F1500
G1 X133.775 Y134.357 E1.98738
G1 X133.607 Y134.525 E.00805
G1 X116.393 Y134.525 E.58266
G1 X116.225 Y134.357 E.00805
G1 X116.225 Y75.643 E1.98738
G1 X116.393 Y75.475 E.00805
G1 X133.607 Y75.475 E.58266
G1 X133.733 Y75.601 E.00602
M204 S1000
G1 X133.574 Y75.989 F10800
;WIPE_START
G1 F8640
G1 X133.735 Y78.892 E-.76
;WIPE_END
G1 E-.04 F2100
G1 Z.8 F720
G1 X132.419 Y133.996 F10800
G1 Z.4 F720
G1 E.8 F2100
;TYPE:Solid infill
;WIDTH:0.451642
G1 F4800
G1 X133.063 Y133.353 E.03091
G1 X133.063 Y132.775 E.01964
G1 X132.025 Y133.813 E.04989
G1 X131.447 Y133.813 E.01964
G1 X133.063 Y132.197 E.07767
G1 X133.063 Y131.619 E.01964
G1 X130.869 Y133.813 E.10545
G1 X130.291 Y133.813 E.01964
G1 X133.063 Y131.041 E.13323
G1 X133.063 Y130.462 E.01964
G1 X129.712 Y133.813 E.16102
G1 X129.134 Y133.813 E.01964
G1 X133.063 Y129.884 E.1888
G1 X133.063 Y129.306 E.01964
G1 X128.556 Y133.813 E.21658
G1 X127.978 Y133.813 E.01964
G1 X133.063 Y128.728 E.24436
G1 X133.063 Y128.15 E.01964
G1 X127.4 Y133.813 E.27214
G1 X126.822 Y133.813 E.01964
G1 X133.063 Y127.572 E.29992
G1 X133.063 Y126.994 E.01964
G1 X126.244 Y133.813 E.3277
G1 X125.666 Y133.813 E.01964
G1 X133.063 Y126.416 E.35548
G1 X133.063 Y125.838 E.01964
G1 X125.088 Y133.813 E.38326
G1 X124.51 Y133.813 E.01964
G1 X133.063 Y125.26 E.41105
G1 X133.063 Y124.682 E.01964
G1 X123.932 Y133.813 E.43883
G1 X123.354 Y133.813 E.01964
G1 X133.063 Y124.104 E.46661
G1 X133.063 Y123.526 E.01964
G1 X122.776 Y133.813 E.49439
G1 X122.198 Y133.813 E.01964
G1 X133.063 Y122.948 E.52217
G1 X133.063 Y122.37 E.01964
G1 X121.62 Y133.813 E.54995
G1 X121.042 Y133.813 E.01964
G1 X133.063 Y121.792 E.57773
G1 X133.063 Y121.214 E.01964
G1 X120.464 Y133.813 E.60551
G1 X119.886 Y133.813 E.01964
G1 X133.063 Y120.636 E.63329
G1 X133.063 Y120.058 E.01964
G1 X119.308 Y133.813 E.66108
G1 X118.73 Y133.813 E.01964
G1 X133.063 Y119.48 E.68886
G1 X133.063 Y118.902 E.01964
G1 X118.152 Y133.813 E.71664
G1 X117.574 Y133.813 E.01964
G1 X133.063 Y118.324 E.74442
G1 X133.063 Y117.746 E.01964
G1 X116.996 Y133.813 E.7722
G1 X116.937 Y133.813 E.00199
G1 X116.937 Y133.293 E.01765
G1 X133.063 Y117.168 E.77502
G1 X133.063 Y116.59 E.01964
G1 X116.937 Y132.715 E.77502
G1 X116.937 Y132.137 E.01964
G1 X133.063 Y116.012 E.77502
G1 X133.063 Y115.434 E.01964
G1 X116.937 Y131.559 E.77502
G1 X116.937 Y130.981 E.01964
G1 X133.063 Y114.856 E.77502
G1 X133.063 Y114.278 E.01964
G1 X116.937 Y130.403 E.77502
G1 X116.937 Y129.825 E.01964
G1 X133.063 Y113.7 E.77502
G1 X133.063 Y113.122 E.01964
G1 X116.937 Y129.247 E.77502
G1 X116.937 Y128.669 E.01964
G1 X133.063 Y112.544 E.77502
G1 X133.063 Y111.966 E.01964
G1 X116.937 Y128.091 E.77502
G1 X116.937 Y127.513 E.01964
G1 X133.063 Y111.388 E.77502
G1 X133.063 Y110.81 E.01964
G1 X116.937 Y126.935 E.77502
G1 X116.937 Y126.357 E.01964
G1 X133.063 Y110.232 E.77502
G1 X133.063 Y109.654 E.01964
G1 X116.937 Y125.779 E.77502
G1 X116.937 Y125.201 E.01964
M73 P8 R34
G1 X133.063 Y109.076 E.77502
G1 X133.063 Y108.498 E.01964
G1 X116.937 Y124.623 E.77502
G1 X116.937 Y124.045 E.01964
G1 X133.063 Y107.92 E.77502
G1 X133.063 Y107.342 E.01964
G1 X116.937 Y123.467 E.77502
G1 X116.937 Y122.889 E.01964
G1 X133.063 Y106.764 E.77502
G1 X133.063 Y106.186 E.01964
G1 X116.937 Y122.311 E.77502
G1 X116.937 Y121.733 E.01964
G1 X133.063 Y105.608 E.77502
G1 X133.063 Y105.03 E.01964
M73 Q8 S35
G1 X116.937 Y121.155 E.77502
G1 X116.937 Y120.577 E.01964
G1 X133.063 Y104.452 E.77502
G1 X133.063 Y103.874 E.01964
G1 X116.937 Y119.999 E.77502
G1 X116.937 Y119.421 E.01964
G1 X133.063 Y103.296 E.77502
G1 X133.063 Y102.718 E.01964
G1 X116.937 Y118.843 E.77502
G1 X116.937 Y118.265 E.01964
G1 X133.063 Y102.14 E.77502
G1 X133.063 Y101.561 E.01964
G1 X116.937 Y117.687 E.77502
G1 X116.937 Y117.109 E.01964
G1 X133.063 Y100.983 E.77502
G1 X133.063 Y100.405 E.01964
G1 X116.937 Y116.531 E.77502
G1 X116.937 Y115.953 E.01964
G1 X133.063 Y99.827 E.77502
G1 X133.063 Y99.249 E.01964
G1 X116.937 Y115.375 E.77502
